X:1
T:Title
L:1/8
M:4/4
K:C
V:1 treble nm="Grand Piano"
V:1
 z4 z A2 A | A2 E2- E F2 G | F4- F G2 G | G2 D2- D E2 F | E4- E F2 F | F2 C2- C D2 E | %6
 D2 D2- D B,2 C | D2 F2- F D2 F | E4- E A2 A | A2 E2- E F2 G | F4- F G2 G | G2 D2- D E2 F | %12
 E4- E F2 F | F2 C2- C D2 E | D2 D2- D B,2 C | D2 E2- E C2 B, | A,4- A, c2 B | B2 A2- A B2 c | %18
 B>A G2- G B2 A | A2 G2- G A2 B | A>G F2- F A2 G | G2 ^F2- F G2 A | G>F E2- E B,2 C | %23
 D2 E2- E F2 ^G | B2 A2- A c2 B | B2 A2- A B2 c | B>A G2- G B2 A | A2 G2- G A2 B | A>G F2- F A2 G | %29
 G2 ^F2- F G2 A | G>F E2- E B,2 C | D2 E2- E C2 B, | A,4- A,EAB | c3 A- A B2 G | F4- FDGA | %35
 B3 G- G A2 F | E4 E E2 E | E3 E- E ^G2 A | B/c/B/A/ B2- B B3 | B2 d2- d c2 B | c/B/A/B/ A4 z2 |] %41

